X:1
T:Nel bel terreno della donna mia
T:Lodovico Agostini
T:Nel bel terreno della donna mia
T:Enigma
C:Lodovico Agostini
%%score [ 1 2 3 4 ]
L:1/8
Q:1/4=112
M:4/2
K:F
V:1 treble nm="Soprano" snm="S"
V:2 alto1 nm="Alto" snm="A"
V:3 alto2 nm="Tenor" snm="T"
V:4 bass3 nm="Bass" snm="B"
V:1
 z16 | d8 e4 f2 f2- | f2 g2 e2 e2 d4 c4 | c8 =B4 c4- | c2 c2 d4 e2 e2 f4 | d4 _e2 d2 e2 f2 g4- | %6
w: |Nel bel ter- re-|* no del- la don- na|mi- a, S'er-|* ge fra al- tie- re spon-|de un va- * * * *|
 g4 c4 d8 | c4 z2 _e4 d4 d2 | e2 f2 f6 f2 d2 _e2 | d4 =B4 z2 A4 A2 | A4 =B8 c4 | c6 c2 c4 c2 c2- | %12
w: * go col-|le, Qual cin- ge|con mi- ra- bil leg- gia-|dri- a, Ver- de|bo- schet- to|de- li- ca- to e mol-|
 c2 =BA B4 c8 | z4 c4 d4 d4 | =B6 B2 ^c4 d4- | d2 d2 c4 B8 | A4 z2 c2 d4 f4 | f4 d4 e6 e2 | %18
w: * * * * le,|A den- tro e|dol- ce tal fon-|* te na- ti-|a, Che mai non|sa- tia et o- gni|
 e4 f4 d8 | e4 z2 c4 c2 c4 | d2 d2 =B4 c4 d4- | d4 d4 _e8 | d4 z2 ^c2 c3 d B2 A2 | %23
w: se- te tol-|le, Qui- vi col|vo- mer mio pur fess'|_ io un sol-|co, Oi- me vor- rei poi|
 =B4 c6 c2 c2 c2- | c2 BA B4 c4 z2 c2- | c2 c2 c4 d2 d2 =B4 | c4 d8 d4 | _e8 d4 z2 ^c2 | %28
w: sempr' es- ser bi- fol-|* * * * co, Qui-|* vi col vo- mer mio|pur fess' io un|sol- co, Oi-|
 ^c3 d B2 A2 =B4 =c4- | c2 c2 c2 c4 BA B4 | c4 z2 d2 d3 d d2 e2 | f4 d6 d2 c4 | d8 e8 |] %33
w: me vor- rei poi sempr' es-|* ser bi- fol- * * *|co, Oi- me vor- rei poi|sempr' es- ser bi-|fol- co.|
V:2
 z16 | =B8 c4 c2 d2- | d2 d2 c2 c2 B4 A4 | G8 G4 G4- | G2 G2 =B4 c2 G2 c4 | =B4 c6 _BA G2 A2 | %6
w: |Nel bel ter- re-|* no del- la don- na|mi- a, S'er-|* ge fra al- tie- re spon-|de un va- * * * *|
 B4 A4 B8 | G4 z2 c4 =B4 B2 | c2 c2 d6 c2 =B2 c2 | A4 G4 E6 E2 | ^F4 G8 G4 | A6 A2 A4 G4 | G8 G8 | %13
w: * go col-|le, Qual cin- ge|con mi- ra- bil leg- gia-|dri- a, Ver- de|bo- schet- to|de- li- ca- to e|mol- le,|
 z4 A4 B4 F4 | G6 G2 E4 A4- | A2 A2 A4 G8 | ^F4 z2 G2 =B4 c4 | d4 A4 c6 c2 | c4 c2 c4 BA B4 | %19
w: A den- tro e|dol- ce tal fon-|* te na- ti-|a, Che mai non|sa- tia et o- gni|se- te tol- * * *|
 c4 z2 A4 A2 A4 | B2 A2 ^G4 A4 =B4- | B4 =B4 c8 | =B4 z2 A2 A3 A G2 ^F2 | G4 A6 A2 G4 | %24
w: le, Qui- vi col|vo- mer mio pur fess'|_ io un sol-|co, Oi- me vor- rei poi|sempr' es- ser bi-|
 G8 G4 z2 A2- | A2 A2 A4 B2 A2 ^G4 | A4 =B8 B4 | c8 =B4 z2 A2 | A3 A G2 ^F2 G4 A4- | A2 A2 G4 G8 | %30
w: fol- co, Qui-|* vi col vo- mer mio|pur fess' io un|sol- co, Oi-|me vor- rei poi sempr' es-|* ser bi- fol-|
 G4 z2 B2 A3 A =B2 c2 | c4 B6 B2 A2 c2- | c2 =BA B4 c8 |] %33
w: co, Oi- me vor- rei poi|sempr' es- ser bi- fol-|* * * * co.|
V:3
 z16 | G8 G4 A2 B2- | B2 B2 G2 A2 F4 F4 | _E8 D4 =E4- | E2 E2 G2 G4 E2 A4 | G4 G2 F2 _E2 D2 C4 | %6
w: |Nel bel ter- re-|* no del- la don- na|mi- a, S'er-|* ge fra al- tie- re spon-|de un va- * * * *|
 B,4 F12 | E4 z2 G4 G4 G2 | G2 A2 DCDEFG A2 G2 G2- | G^F F2 G2 D4 ^C2 C4 | D12 E4 | F6 F2 E4 E4 | %12
w: go col-|le, Qual cin- ge|con mi- ra- * * * * * * bil leg-|* gia- dri- a, Ver- de bo-|schet- to|de- li- ca- to e|
 D8 E8 | z4 F4 F4 D4 | D6 D2 A4 F4- | F2 F2 F4 D8 | D4 z2 E2 G4 A4 | B4 F4 G6 G2 | A4 A4 G8 | %19
w: mol- le,|A den- tro e|dol- ce tal fon-|* te na- ti-|a, Che mai non|sa- tia et o- gni|se- te tol-|
 G4 z2 F4 F2 E4 | G2 F2 E4 E4 G4- | G4 G4 G8 | G4 z2 E2 E3 D D2 D2 | D4 F6 F2 _E4 | D8 E4 z2 F2- | %25
w: le, Qui- vi col|vo- mer mio pur fess'|_ io un sol-|co, Oi- me vor- rei poi|sempr' es- ser bi-|fol- co, Qui-|
 F2 F2 E4 G2 F2 E4 | E4 G8 G4 | G8 G4 z2 E2 | E3 D D2 D2 D4 F4- | F2 F2 _E4 D8 | %30
w: * vi col vo- mer mio|pur fess' io un|sol- co, Oi-|me vor- rei poi sempr' es-|* ser bi- fol-|
 E4 z2 G2 ^F3 F G2 G2 | A4 G6 G2 E4 | G8 G8 |] %33
w: co, Oi- me vor- rei poi|sempr' es- ser bi-|fol- co.|
V:4
 z16 | G,8 C4 F,2 B,2- | B,2 G,2 C2 A,2 B,4 F,4 | C8 G,4 C4- | C2 C2 G,4 C2 C2 F,4 | %5
w: |Nel bel ter- re-|* no del- la don- na|mi- a, S'er-|* ge fra al- tie- re spon-|
 G,4 C,6 D,2 _E,2 F,2 | G,4 F,4 B,8 | C4 z2 C4 G,4 G,2 | C2 A,2 B,6 F,2 G,2 C,2 | D,4 G,4 A,6 A,2 | %10
w: de un va- * * *|* go col-|le, Qual cin- ge|con mi- ra- bil leg- gia-|dri- a, Ver- de|
 D,4 G,8 C,4 | F,6 F,2 A,4 C4 | G,8 C,8 | z4 F,4 B,4 B,4 | G,6 G,2 A,4 D,4- | D,2 D,2 F,4 G,8 | %16
w: bo- schet- to|de- li- ca- to e|mol- le,|A den- tro e|dol- ce tal fon-|* te na- ti-|
 D,4 z2 C,2 G,4 F,4 | B,4 D4 C6 C2 | A,4 F,4 G,8 | C,4 z2 F,4 F,2 A,4 | G,2 D,2 E,4 A,4 G,4- | %21
w: a, Che mai non|sa- tia et o- gni|se- te tol-|le, Qui- vi col|vo- mer mio pur fess'|
 G,4 G,4 C,8 | G,4 z2 A,2 A,3 ^F, G,2 D,2 | G,4 F,6 F,2 C,4 | G,8 C,4 z2 F,2- | %25
w: _ io un sol-|co, Oi- me vor- rei poi|sempr' es- ser bi-|fol- co, Qui-|
 F,2 F,2 A,4 G,2 D,2 E,4 | A,4 G,8 G,4 | C,8 G,4 z2 A,2 | A,3 ^F, G,2 D,2 G,4 =F,4- | %29
w: * vi col vo- mer mio|pur fess' io un|sol- co, Oi-|me vor- rei poi sempr' es-|
 F,2 F,2 C,4 G,8 | C,4 z2 G,2 D,3 D, G,2 C,2 | F,4 G,6 G,2 A,4 | G,8 C,8 |] %33
w: * ser bi- fol-|co, Oi- me vor- rei poi|sempr' es- ser bi-|fol- co.|

